lib/radiotmp/nrk-media-speed-0.8x.svg

<svg width="40" height="24" viewBox="0 0 40 24" fill="none" xmlns="http://www.w3.org/2000/svg">
<path d="M9.02236 17.4524C7.58236 17.4524 6.50736 17.0024 5.79736 16.1024C5.08736 15.1924 4.73236 13.8574 4.73236 12.0974C4.73236 10.2874 5.10236 8.90244 5.84236 7.94244C6.59236 6.98244 7.69736 6.50244 9.15736 6.50244C10.5774 6.50244 11.6374 6.96244 12.3374 7.88244C13.0474 8.79244 13.4024 10.1424 13.4024 11.9324C13.4024 13.7424 13.0374 15.1174 12.3074 16.0574C11.5774 16.9874 10.4824 17.4524 9.02236 17.4524ZM9.03736 15.7724C9.80736 15.7724 10.3574 15.4624 10.6874 14.8424C11.0174 14.2124 11.1824 13.2524 11.1824 11.9624C11.1824 10.6524 11.0224 9.69744 10.7024 9.09744C10.3824 8.48744 9.84236 8.18244 9.08236 8.18244C8.31236 8.18244 7.76236 8.49744 7.43236 9.12744C7.11236 9.74744 6.95236 10.7174 6.95236 12.0374C6.95236 13.3474 7.11236 14.2974 7.43236 14.8874C7.75236 15.4774 8.28736 15.7724 9.03736 15.7724Z" fill="black"/>
<path d="M15.7489 17.4974C15.3589 17.4974 15.0289 17.3724 14.7589 17.1224C14.4989 16.8624 14.3689 16.5424 14.3689 16.1624C14.3689 15.8024 14.4989 15.4924 14.7589 15.2324C15.0289 14.9724 15.3589 14.8424 15.7489 14.8424C16.1289 14.8424 16.4489 14.9724 16.7089 15.2324C16.9789 15.4924 17.1139 15.8024 17.1139 16.1624C17.1139 16.5424 16.9789 16.8624 16.7089 17.1224C16.4489 17.3724 16.1289 17.4974 15.7489 17.4974Z" fill="black"/>
<path d="M22.4487 17.4524C21.6987 17.4524 21.0137 17.3424 20.3937 17.1224C19.7837 16.8924 19.2936 16.5624 18.9236 16.1324C18.5536 15.6924 18.3687 15.1574 18.3687 14.5274C18.3687 13.8574 18.5687 13.3024 18.9686 12.8624C19.3786 12.4224 19.8937 12.0724 20.5137 11.8124C19.9837 11.5724 19.5437 11.2624 19.1937 10.8824C18.8537 10.5024 18.6837 10.0074 18.6837 9.39744C18.6837 8.89744 18.8336 8.42744 19.1336 7.98744C19.4337 7.54744 19.8736 7.19244 20.4536 6.92244C21.0336 6.64244 21.7486 6.50244 22.5986 6.50244C23.3587 6.50244 24.0287 6.61244 24.6087 6.83244C25.1887 7.05244 25.6437 7.36244 25.9736 7.76244C26.3036 8.15244 26.4687 8.61244 26.4687 9.14244C26.4687 9.81244 26.2736 10.3524 25.8836 10.7624C25.5037 11.1724 25.0387 11.4774 24.4887 11.6774C25.1187 11.9574 25.6387 12.3024 26.0487 12.7124C26.4687 13.1224 26.6786 13.6724 26.6786 14.3624C26.6786 14.9524 26.5037 15.4824 26.1537 15.9524C25.8137 16.4224 25.3286 16.7924 24.6987 17.0624C24.0686 17.3224 23.3186 17.4524 22.4487 17.4524ZM20.7236 9.36744C20.7236 9.76744 20.9286 10.1124 21.3386 10.4024C21.7586 10.6924 22.3437 10.9524 23.0937 11.1824C23.5237 10.9624 23.8587 10.7124 24.0986 10.4324C24.3386 10.1524 24.4587 9.82744 24.4587 9.45744C24.4587 9.06744 24.2837 8.74744 23.9337 8.49744C23.5837 8.23744 23.0986 8.10744 22.4786 8.10744C21.8386 8.10744 21.3836 8.24244 21.1136 8.51244C20.8536 8.77244 20.7236 9.05744 20.7236 9.36744ZM20.3036 14.1974C20.3036 14.6774 20.4887 15.0674 20.8587 15.3674C21.2287 15.6574 21.7586 15.8024 22.4487 15.8024C23.0686 15.8024 23.5937 15.6774 24.0237 15.4274C24.4537 15.1774 24.6686 14.7974 24.6686 14.2874C24.6686 13.8074 24.4037 13.4224 23.8736 13.1324C23.3536 12.8324 22.6686 12.5474 21.8186 12.2774C21.3486 12.5274 20.9787 12.8024 20.7087 13.1024C20.4387 13.4024 20.3036 13.7674 20.3036 14.1974Z" fill="black"/>
<path d="M27.4077 17.3024L30.0927 13.4324L27.6177 9.81744L29.7027 9.29244L31.3527 12.2174L32.8827 9.54744H35.2527L32.5977 13.3424L35.2677 17.3024H32.9127L31.2927 14.5874L29.7027 17.3024H27.4077Z" fill="black"/>
</svg>

<svg xmlns="http://www.w3.org/2000/svg" viewBox="0 0 40 24"><path fill="#000" d="M9.022 17.452c-1.44 0-2.515-.45-3.225-1.35-.71-.91-1.065-2.245-1.065-4.005 0-1.81.37-3.195 1.11-4.155.75-.96 1.855-1.44 3.315-1.44 1.42 0 2.48.46 3.18 1.38.71.91 1.065 2.26 1.065 4.05 0 1.81-.365 3.185-1.095 4.125-.73.93-1.825 1.395-3.285 1.395Zm.015-1.68c.77 0 1.32-.31 1.65-.93.33-.63.495-1.59.495-2.88 0-1.31-.16-2.265-.48-2.865-.32-.61-.86-.915-1.62-.915-.77 0-1.32.315-1.65.945-.32.62-.48 1.59-.48 2.91 0 1.31.16 2.26.48 2.85.32.59.855.885 1.605.885ZM15.749 17.497c-.39 0-.72-.125-.99-.375-.26-.26-.39-.58-.39-.96 0-.36.13-.67.39-.93.27-.26.6-.39.99-.39.38 0 .7.13.96.39.27.26.405.57.405.93 0 .38-.135.7-.405.96-.26.25-.58.375-.96.375ZM22.449 17.452a6.11 6.11 0 0 1-2.055-.33c-.61-.23-1.1-.56-1.47-.99-.37-.44-.555-.975-.555-1.605 0-.67.2-1.225.6-1.665.41-.44.925-.79 1.545-1.05-.53-.24-.97-.55-1.32-.93-.34-.38-.51-.875-.51-1.485 0-.5.15-.97.45-1.41.3-.44.74-.795 1.32-1.065.58-.28 1.295-.42 2.145-.42.76 0 1.43.11 2.01.33.58.22 1.035.53 1.365.93.33.39.495.85.495 1.38 0 .67-.195 1.21-.585 1.62a3.5 3.5 0 0 1-1.395.915c.63.28 1.15.625 1.56 1.035.42.41.63.96.63 1.65 0 .59-.175 1.12-.525 1.59-.34.47-.825.84-1.455 1.11-.63.26-1.38.39-2.25.39Zm-1.725-8.085c0 .4.205.745.615 1.035.42.29 1.005.55 1.755.78.43-.22.765-.47 1.005-.75.24-.28.36-.605.36-.975 0-.39-.175-.71-.525-.96-.35-.26-.835-.39-1.455-.39-.64 0-1.095.135-1.365.405-.26.26-.39.545-.39.855Zm-.42 4.83c0 .48.185.87.555 1.17.37.29.9.435 1.59.435.62 0 1.145-.125 1.575-.375.43-.25.645-.63.645-1.14 0-.48-.265-.865-.795-1.155-.52-.3-1.205-.585-2.055-.855-.47.25-.84.525-1.11.825-.27.3-.405.665-.405 1.095ZM27.408 17.302l2.685-3.87-2.475-3.615 2.085-.525 1.65 2.925 1.53-2.67h2.37l-2.655 3.795 2.67 3.96h-2.355l-1.62-2.715-1.59 2.715h-2.295Z"/></svg>
